libs/ui/packages/crypto-icons/src/svg/POT.svg

<svg width="24" height="24" viewBox="0 0 24 24" fill="none">
<path fill-rule="evenodd" clip-rule="evenodd" d="M9.02481 13.6351L8.73231 15.1254L8.19981 17.8636C8.18481 17.9461 8.16381 18.0016 8.05881 18.0001C7.39731 17.9904 6.73581 17.9851 6.07431 17.9776C6.05856 17.9776 6.04206 17.9671 6.00006 17.9514L7.49256 10.4964H6.23481C6.23781 10.4409 6.23631 10.4079 6.24231 10.3764C6.31956 9.97361 6.40281 9.57161 6.47256 9.16736C6.49206 9.05486 6.54231 9.02636 6.64731 9.02711C6.95481 9.03011 7.26231 9.01886 7.56831 9.02936C7.71456 9.03386 7.77081 8.99186 7.79931 8.84786C7.97031 7.95686 8.15331 7.06886 8.32881 6.17936C8.34981 6.07361 8.37306 6.00086 8.51106 6.00086C10.0171 6.00536 11.5238 5.99111 13.0298 6.01061C13.9088 6.02186 14.7901 6.06686 15.6548 6.24461C15.9526 6.30611 16.2548 6.38561 16.5308 6.50861C17.3243 6.86111 17.8021 7.47161 17.9348 8.31686C18.1411 9.63011 17.8628 10.8369 17.0198 11.8884C16.3973 12.6624 15.5438 13.0966 14.5906 13.3606C13.8346 13.5699 13.0591 13.6351 12.2776 13.6366C11.2613 13.6389 10.2451 13.6366 9.22881 13.6359H9.02481V13.6351ZM9.44106 11.5816H9.65331C10.7281 11.5816 11.8028 11.5839 12.8783 11.5801C13.1071 11.5801 13.3388 11.5704 13.5661 11.5426C14.4338 11.4391 15.0931 11.0229 15.5146 10.2676C15.6954 9.94009 15.7562 9.55967 15.6863 9.19211C15.5978 8.66936 15.2858 8.32811 14.7556 8.23211C14.3674 8.15813 13.9738 8.11549 13.5788 8.10461C12.4748 8.08436 11.3708 8.09261 10.2661 8.08961C10.2263 8.08961 10.1866 8.09561 10.1333 8.10011L9.95031 9.03611H13.0178L12.7358 10.4896H9.65856L9.44106 11.5816Z" fill="#105B2F"/>
</svg>

<svg width="24" height="24" viewBox="0 0 24 24" fill="none"><path fill="#105b2f" fill-rule="evenodd" d="m9.025 13.635-.293 1.49-.532 2.739c-.015.082-.036.138-.141.136q-.992-.013-1.985-.022c-.015 0-.032-.01-.074-.027l1.493-7.455H6.235c.003-.055.001-.088.007-.12.078-.402.16-.804.23-1.209.02-.112.07-.14.175-.14.308.003.615-.008.921.002.147.005.203-.037.231-.181.171-.891.354-1.78.53-2.669.02-.105.044-.178.182-.178 1.506.004 3.013-.01 4.519.01.879.01 1.76.056 2.625.234.298.061.6.14.876.264.793.352 1.271.963 1.404 1.808.206 1.313-.072 2.52-.915 3.571-.623.774-1.476 1.209-2.43 1.473-.755.209-1.53.274-2.312.276q-1.525.002-3.05-.001zm.416-2.053h.212c1.075 0 2.15.002 3.225-.002q.346.002.688-.037c.868-.104 1.527-.52 1.949-1.275a1.6 1.6 0 0 0 .171-1.076c-.088-.523-.4-.864-.93-.96a7.4 7.4 0 0 0-1.177-.127c-1.104-.02-2.208-.012-3.313-.015-.04 0-.08.006-.133.01l-.183.936h3.068l-.282 1.454H9.659z" clip-rule="evenodd"/></svg>
